X:1
T:Title
%%score { ( 1 3 ) | 2 }
L:1/8
Q:1/4=120
M:6/4
K:Bb
V:1 treble nm="Grand Piano"
V:3 treble 
V:2 bass 
V:1
 [DB]2 [DA]2 [DG]2 [DF]2 [CE]2 D2 | F2 G3 _A =A6 | c2 A2 G2 E2 A3 G | z6 [=DF]6 | %4
w: Scott~Lawrence * * * * *||||
 d2 =B2 _A2 G2 A2 G2 | [EG]2 [Gc]2 [Gd]2 [Ge]4 [Fd]2 | %6
w: ||
 [=Ec]2 [B,EG]2 [CEA]2 [DEB]2 [CEA]2 [B,EG]2 | A2 B2 =B2 c6 | D2 [CE]2 [_D=E]2 [=DF]2 [Dc]3 [DB] | %9
w: |||
 [FB]2 [EA]2 [EG]2 F6 | F2 A3 B c3 d c2 | [Ec]2 [DB]2 [_DG]2 z4 B,2 | d2 e2 d2 [Ec]2 [EG]3 [EG] | %13
w: ||||
 A2 d3 c B6 | B2 A2 G2 F2 e3 d | c2 [B,=EG]2 [A,_EA]2 [DB]6 |] %16
w: |||
V:2
 [B,,F,]2 [B,,F,]2 [B,,F,]2 [B,,B,]2 [B,,B,]2 [B,,B,]2 | [F,A,E]2 [F,B,E]3 [F,=B,E] [F,CE]6 | %2
 [F,A,E]2 [F,CE]2 [F,B,E]2 [F,A,C]2 [F,CE]3 [F,A,E] | [B,,B,]2 [B,,G,]2 [B,,=E,]2 .[B,,F,]6 | %4
 [G,=B,F]2 [G,DF]2 [G,CF]2 [G,B,F]2 [G,CF]2 [G,B,F]2 | [C,C]2 [E,C]2 [G,=B,]2 [C,C]4 [=B,,G,]2 | %6
 [C,G,]2 C,2 C,2 C,2 C,2 C,2 | [F,A,E]2 [F,G,E]2 [F,_A,E]2 [F,=A,E]6 | %8
 [B,,F,B,]2 [B,,F,]2 [B,,F,]2 [B,,B,]2 [B,,B,]3 [B,,B,] | [C,F,]2 [C,C]2 [C,B,]2 [F,A,E]6 | %10
 [F,A,E]2 [F,CE]3 [F,G,E] [F,A,E]3 [F,A,F] [F,A,E]2 | [B,,B,]2 [B,,F,]2 [B,,=E,]2 .[B,,F,]6 | %12
 [G,=B,F]2 [G,B,G]2 [G,B,F]2[K:bass] [C,C]2 [C,C]3 [C,C] | [F,CE]2 [F,A,F]3 [^F,A,E] [G,B,D]6 | %14
 [=E,G,_D]2 [E,A,D]2 [E,B,D]2 [F,B,=D]2 [F,A,F]3 [F,B,F] | [G,B,=E]2 C,2 F,,2 [B,,F,]6 |] %16
V:3
 x12 | x12 | x12 | [EG]2 [_D=E]2 [DG]2 z4 B,2 | x12 | x12 | x12 | x12 | x12 | x12 | x12 | %11
 z6 [=DF]6 | x12 | x12 | x12 | x12 |] %16

